X:1
L:1/16
M:2/4
K:C
 ce | g2 g4 af | e2 e4 fd | c2c2 cBce | dcBA Gdef | g4 g2 af | e2 e4 fd | cBcB Aagf | edcB c2 |] 
 !fermata!ef | g^fgf gfge | a^gag abc'a | g^fge ceag | fedc BAGF | EGcB AGFE | FBdc BAGF | 
 EGce geaf | efde""^D.C."" c2 |] E2 | A>^GA>B cBcB | A2e2 c2A2 | a2ab c'2c'd' | abc'd' e'2e2 | 
 fefe d2gf | edcB c2ed | cBA^G ABcd | E2^G2""^D.C.""A2 |]
